; generated by Slic3r 1.2.9 on 2016-07-25 at 21:05:53

; external perimeters extrusion width = 0.40mm
; perimeters extrusion width = 0.67mm
; infill extrusion width = 0.67mm
; solid infill extrusion width = 0.67mm
; top infill extrusion width = 0.67mm

M109 S60 ; set bed temperature
T1; set primary extruder
M73 P0; enable show build progress
M109 S60 T0; heat bed up to first layer temperature
M104 S215 T1; set nozzle heater to first layer temperature
M103; disable RPM
G21; set units to mm
G162 X Y F6000; home XY axes maximum
G161 Z F9000; home Z axis minimum
G92 Z0; set Z to 0
M132 X Y Z A B; Recall stored home offsets
G90; set positioning to absolute
G1 Z30; move Z to waiting height
G1 X-95 Y-73 Z30 F14000; move to waiting position (front left corner of print bed)
G130 X0 Y0 A0 B0; set stepper motor vref to lower value while heating
M6; wait for bed and extruder to heat up
G130 X127 Y127 A127 B127; set stepper motor vref to defaults
M108 T1 R3; set extruder speed
G92 E0; set E to 0
G90; use absolute coordinates
M320; acceleration enabled for all commands that follow
G1 Z0.3 F6000.000; move to first layer height
G1 X100 Y-73 F14000.000; move to front right corner of bed
G1 X-90 Y-73 E24 F2000.000; extrude a line of filament across the front edge of the bed
G4 P2000; wait for ooze to slow
G1 Z0 F6000.000; lower nozzle height to 0
G1 X-95; wipe nozzle
G1 Z0.3 F6000.000; set nozzle to first layer height
G1 F12000; ensure fast travel to first print move
G92 E0; set E to 0 again
M73 P0; reset build progress to 0
G21 ; set units to millimeters
G90 ; use absolute coordinates
M126
M73 P0
G1 Z0.300 F4800.000
G1 E-1.00000 F2400.00000
G1 Z0.500 F4800.000
G1 X33.973 Y-0.091 F4800.000
G1 Z0.300 F4800.000
G1 E0.00000 F2400.00000
G1 X34.070 Y36.361 E2.43519 F900.000
G1 X34.040 Y37.371 E2.50271
G1 X33.971 Y38.201 E2.55835
G1 X33.861 Y39.027 E2.61399
G1 X33.711 Y39.846 E2.66963
G1 X33.521 Y40.657 E2.72527
G1 X33.384 Y41.151 E2.75948
G1 X33.131 Y41.944 E2.81512
G1 X32.838 Y42.724 E2.87075
G1 X32.371 Y43.778 E2.94781
G1 X31.989 Y44.519 E3.00345
G1 X31.737 Y44.964 E3.03766
G1 X31.120 Y45.939 E3.11472
G1 X30.491 Y46.798 E3.18589
G1 X29.781 Y47.655 E3.26019
G1 X29.212 Y48.263 E3.31583
G1 X28.377 Y49.059 E3.39289
G1 X27.741 Y49.597 E3.44853
G1 X27.080 Y50.103 E3.50417
G1 X26.661 Y50.398 E3.53838
G1 X25.686 Y51.015 E3.61544
G1 X25.241 Y51.267 E3.64966
G1 X24.500 Y51.649 E3.70529
G1 X23.742 Y51.993 E3.76093
G1 X22.666 Y52.408 E3.83799
G1 X21.873 Y52.662 E3.89363
G1 X21.379 Y52.799 E3.92784
G1 X20.568 Y52.989 E3.98348
G1 X19.749 Y53.139 E4.03912
G1 X18.604 Y53.280 E4.11618
G1 X17.773 Y53.334 E4.17182
G1 X17.083 Y53.348 E4.21791
G1 X-73.456 Y53.107 E10.26642
G1 X-74.110 Y53.093 E10.31019
G1 X-74.942 Y53.039 E10.36583
G1 X-75.769 Y52.945 E10.42146
G1 X-76.906 Y52.748 E10.49852
G1 X-77.405 Y52.636 E10.53274
G1 X-78.210 Y52.421 E10.58837
G1 X-79.305 Y52.059 E10.66543
G1 X-79.783 Y51.875 E10.69965
G1 X-80.548 Y51.545 E10.75528
G1 X-81.578 Y51.026 E10.83235
G1 X-82.024 Y50.774 E10.86656
G1 X-82.731 Y50.335 E10.92219
G1 X-83.674 Y49.671 E10.99926
G1 X-84.078 Y49.356 E11.03347
G1 X-84.714 Y48.818 E11.08911
G1 X-85.323 Y48.249 E11.14475
G1 X-86.118 Y47.414 E11.22180
G1 X-86.452 Y47.026 E11.25602
G1 X-86.971 Y46.374 E11.31166
G1 X-87.635 Y45.431 E11.38872
G1 X-87.909 Y44.998 E11.42293
G1 X-88.327 Y44.278 E11.47857
G1 X-88.845 Y43.247 E11.55562
G1 X-89.053 Y42.779 E11.58984
G1 X-89.360 Y42.005 E11.64548
G1 X-89.722 Y40.910 E11.72254
G1 X-89.936 Y40.105 E11.77818
G1 X-90.048 Y39.605 E11.81239
G1 X-90.198 Y38.786 E11.86803
G1 X-90.274 Y38.238 E11.90499
G1 X-90.340 Y37.641 E11.94509
G1 X-90.393 Y36.810 E12.00073
G1 X-91.152 Y-27.324 E16.28555
G1 X-91.122 Y-28.394 E16.35701
G1 X-91.053 Y-29.223 E16.41265
G1 X-90.943 Y-30.049 E16.46829
G1 X-90.793 Y-30.868 E16.52393
G1 X-90.603 Y-31.679 E16.57957
G1 X-90.373 Y-32.480 E16.63520
G1 X-90.213 Y-32.966 E16.66942
G1 X-89.920 Y-33.746 E16.72506
G1 X-89.590 Y-34.510 E16.78069
G1 X-89.222 Y-35.258 E16.83633
G1 X-88.819 Y-35.986 E16.89197
G1 X-88.380 Y-36.694 E16.94761
G1 X-87.907 Y-37.379 E17.00325
G1 X-87.401 Y-38.041 E17.05889
G1 X-86.863 Y-38.677 E17.11453
G1 X-86.067 Y-39.512 E17.19158
G1 X-85.459 Y-40.081 E17.24722
G1 X-84.823 Y-40.619 E17.30286
G1 X-84.419 Y-40.934 E17.33707
G1 X-83.743 Y-41.420 E17.39271
G1 X-83.043 Y-41.872 E17.44835
G1 X-82.323 Y-42.289 E17.50399
G1 X-81.292 Y-42.808 E17.58105
G1 X-80.824 Y-43.015 E17.61526
G1 X-80.050 Y-43.322 E17.67090
G1 X-78.955 Y-43.684 E17.74796
G1 X-78.461 Y-43.821 E17.78218
G1 X-77.650 Y-44.011 E17.83781
G1 X-76.831 Y-44.161 E17.89345
G1 X-76.283 Y-44.237 E17.93041
G1 X-75.686 Y-44.302 E17.97052
G1 X-74.855 Y-44.356 E18.02615
G1 X17.090 Y-44.909 E24.16868
G1 X17.922 Y-44.881 E24.22432 F900.000
G1 X18.433 Y-44.843 E24.25853
G1 X19.578 Y-44.702 E24.33559
G1 X20.082 Y-44.614 E24.36980
G1 X20.896 Y-44.440 E24.42544
G1 X22.008 Y-44.132 E24.50250
G1 X22.494 Y-43.971 E24.53672
G1 X23.274 Y-43.679 E24.59235
G1 X24.329 Y-43.211 E24.66941
G1 X24.786 Y-42.981 E24.70363
G1 X25.515 Y-42.578 E24.75926
G1 X26.489 Y-41.960 E24.83632
G1 X27.166 Y-41.474 E24.89196
G1 X27.569 Y-41.159 E24.92618
G1 X28.443 Y-40.406 E25.00323
G1 X28.814 Y-40.053 E25.03745
G1 X29.394 Y-39.455 E25.09308
G1 X29.944 Y-38.830 E25.14873
G1 X30.462 Y-38.178 E25.20436
G1 X31.126 Y-37.235 E25.28142
G1 X31.565 Y-36.527 E25.33706
G1 X31.818 Y-36.081 E25.37127
G1 X32.336 Y-35.051 E25.44833
G1 X32.544 Y-34.583 E25.48255
G1 X32.851 Y-33.809 E25.53819
G1 X33.213 Y-32.714 E25.61524
G1 X33.349 Y-32.220 E25.64946
G1 X33.539 Y-31.409 E25.70509
G1 X33.690 Y-30.590 E25.76074
G1 X33.799 Y-29.764 E25.81637
G1 X33.884 Y-28.614 E25.89343
G1 X33.973 Y-0.151 E27.79494
G1 E26.79494 F2400.00000
G1 Z0.500 F4800.000
G1 X-65.665 Y31.479 F4800.000
G1 Z0.300 F4800.000
G1 E27.79494 F2400.00000
G1 X-65.246 Y32.263 E27.85436 F900.000
G1 X-65.066 Y32.670 E27.88407
G1 X-64.766 Y33.507 E27.94348
G1 X-64.647 Y33.936 E27.97320
G1 X-64.474 Y34.808 E28.03261
G1 X-64.387 Y35.693 E28.09202
G1 X-64.387 Y36.582 E28.15143
G1 X-64.420 Y37.026 E28.18115
G1 X-64.474 Y37.467 E28.21086
G1 X-64.647 Y38.340 E28.27027
G1 X-64.906 Y39.191 E28.32969
G1 X-65.246 Y40.012 E28.38910
G1 X-65.665 Y40.797 E28.44851
G1 X-66.159 Y41.536 E28.50792
G1 X-66.723 Y42.224 E28.56733
G1 X-67.030 Y42.546 E28.59705
G1 X-67.689 Y43.143 E28.65646
G1 X-68.403 Y43.673 E28.71587
G1 X-69.166 Y44.130 E28.77528
G1 X-69.564 Y44.330 E28.80500
G1 X-70.385 Y44.670 E28.86441
G1 X-71.236 Y44.928 E28.92382
G1 X-71.670 Y45.026 E28.95354
G1 X-72.550 Y45.156 E29.01295
G1 X-72.993 Y45.189 E29.04266
G1 X-73.883 Y45.189 E29.10207
G1 X-74.768 Y45.102 E29.16149
G1 X-75.640 Y44.928 E29.22090
G1 X-76.491 Y44.670 E29.28031
G1 X-77.313 Y44.330 E29.33972
G1 X-77.710 Y44.130 E29.36943
G1 X-78.473 Y43.673 E29.42885
G1 X-78.836 Y43.417 E29.45856
G1 X-79.524 Y42.852 E29.51797
G1 X-80.153 Y42.224 E29.57738
G1 X-80.717 Y41.536 E29.63680
G1 X-80.973 Y41.172 E29.66651
G1 X-81.430 Y40.410 E29.72592
G1 X-81.811 Y39.606 E29.78533
G1 X-82.110 Y38.768 E29.84475
G1 X-82.229 Y38.340 E29.87446
G1 X-82.402 Y37.467 E29.93387
G1 X-82.489 Y36.582 E29.99328
G1 X-82.500 Y36.138 E30.02300
G1 X-82.489 Y35.693 E30.05271
G1 X-82.402 Y34.808 E30.11213
G1 X-82.229 Y33.936 E30.17154
G1 X-81.971 Y33.085 E30.23095
G1 X-81.630 Y32.263 E30.29036
G1 X-81.430 Y31.866 E30.32008
G1 X-80.973 Y31.103 E30.37949
G1 X-80.443 Y30.389 E30.43890
G1 X-79.846 Y29.730 E30.49831
G1 X-79.187 Y29.133 E30.55772
G1 X-78.836 Y28.859 E30.58744
G1 X-78.097 Y28.365 E30.64685
G1 X-77.710 Y28.146 E30.67656
G1 X-76.906 Y27.765 E30.73598
G1 X-76.069 Y27.466 E30.79539
G1 X-75.206 Y27.250 E30.85480
G1 X-74.768 Y27.174 E30.88451
G1 X-73.893 Y27.087 E30.94322
G1 X-73.238 Y27.081 E30.98701
G1 X-72.538 Y27.121 E31.03384
G1 X-71.670 Y27.250 E31.09245 F900.000
G1 X-71.236 Y27.347 E31.12217
G1 X-70.385 Y27.605 E31.18158
G1 X-69.564 Y27.946 E31.24099
G1 X-68.779 Y28.365 E31.30040
G1 X-68.040 Y28.859 E31.35981
G1 X-67.352 Y29.423 E31.41923
G1 X-67.030 Y29.730 E31.44894
G1 X-66.433 Y30.389 E31.50835
G1 X-66.159 Y30.739 E31.53807
G1 X-65.697 Y31.428 E31.59347
G1 X-65.199 Y31.215 F4800.000
G1 X-64.762 Y32.034 E31.65552 F900.000
G1 X-64.401 Y32.904 E31.71844
G1 X-64.253 Y33.352 E31.74991
G1 X-64.025 Y34.265 E31.81284
G1 X-63.886 Y35.197 E31.87576
G1 X-63.852 Y35.667 E31.90723
G1 X-63.852 Y36.609 E31.97016
G1 X-63.944 Y37.546 E32.03308
G1 X-64.128 Y38.470 E32.09601
G1 X-64.253 Y38.924 E32.12748
G1 X-64.571 Y39.811 E32.19040
G1 X-64.973 Y40.662 E32.25333
G1 X-65.206 Y41.072 E32.28480
G1 X-65.729 Y41.855 E32.34772
G1 X-66.326 Y42.583 E32.41065
G1 X-66.992 Y43.249 E32.47357
G1 X-67.349 Y43.557 E32.50504
G1 X-68.106 Y44.118 E32.56797
G1 X-68.914 Y44.602 E32.63089
G1 X-69.334 Y44.814 E32.66236
G1 X-70.205 Y45.175 E32.72529
G1 X-71.106 Y45.448 E32.78821
G1 X-71.566 Y45.551 E32.81968
G1 X-72.497 Y45.689 E32.88261
G1 X-72.967 Y45.724 E32.91408
G1 X-73.909 Y45.724 E32.97700
G1 X-74.846 Y45.632 E33.03993
G1 X-75.770 Y45.448 E33.10285
G1 X-76.672 Y45.175 E33.16578
G1 X-77.542 Y44.814 E33.22870
G1 X-77.963 Y44.602 E33.26017
G1 X-78.770 Y44.118 E33.32310
G1 X-79.156 Y43.847 E33.35457
G1 X-79.884 Y43.249 E33.41749
G1 X-80.225 Y42.925 E33.44896
G1 X-80.857 Y42.227 E33.51189
G1 X-81.419 Y41.470 E33.57481
G1 X-81.671 Y41.072 E33.60628
G1 X-82.115 Y40.241 E33.66921
G1 X-82.475 Y39.371 E33.73213
G1 X-82.748 Y38.470 E33.79506
G1 X-82.932 Y37.546 E33.85798
G1 X-83.025 Y36.609 E33.92091
G1 X-83.036 Y36.138 E33.95238
G1 X-83.025 Y35.667 E33.98385
G1 X-82.932 Y34.729 E34.04677
G1 X-82.748 Y33.806 E34.10970
G1 X-82.475 Y32.904 E34.17262
G1 X-82.115 Y32.034 E34.23555
G1 X-81.903 Y31.613 E34.26702
G1 X-81.419 Y30.805 E34.32994
G1 X-80.857 Y30.049 E34.39287
G1 X-80.225 Y29.351 E34.45579
G1 X-79.527 Y28.718 E34.51872
G1 X-79.156 Y28.429 E34.55019
G1 X-78.372 Y27.905 E34.61311
G1 X-77.963 Y27.673 E34.64458
G1 X-77.111 Y27.270 E34.70751
G1 X-76.224 Y26.953 E34.77043
G1 X-75.311 Y26.724 E34.83336
G1 X-74.846 Y26.644 E34.86483
G1 X-73.915 Y26.552 E34.92732
G1 X-73.225 Y26.545 E34.97343
G1 X-72.490 Y26.587 E35.02262
G1 X-71.566 Y26.724 E35.08506 F900.000
G1 X-71.106 Y26.827 E35.11653
G1 X-70.205 Y27.101 E35.17946
G1 X-69.334 Y27.461 E35.24238
G1 X-68.504 Y27.905 E35.30531
G1 X-67.721 Y28.429 E35.36823
G1 X-67.349 Y28.718 E35.39970
G1 X-66.651 Y29.351 E35.46263
G1 X-66.019 Y30.049 E35.52555
G1 X-65.729 Y30.420 E35.55702
G1 X-65.231 Y31.164 E35.61682
G1 X-64.733 Y30.951 F4800.000
G1 X-64.277 Y31.805 E35.68150 F450.000
G1 X-63.897 Y32.724 E35.74793
G1 X-63.608 Y33.675 E35.81437
G1 X-63.499 Y34.161 E35.84760
G1 X-63.353 Y35.144 E35.91404
G1 X-63.317 Y35.640 E35.94727
G1 X-63.317 Y36.635 E36.01370
G1 X-63.414 Y37.625 E36.08014
G1 X-63.608 Y38.600 E36.14658
G1 X-63.741 Y39.079 E36.17980
G1 X-64.076 Y40.016 E36.24624
G1 X-64.501 Y40.915 E36.31268
G1 X-64.746 Y41.348 E36.34591
G1 X-65.299 Y42.174 E36.41234
G1 X-65.929 Y42.943 E36.47878
G1 X-66.633 Y43.646 E36.54522
G1 X-67.009 Y43.971 E36.57845
G1 X-67.808 Y44.564 E36.64488
G1 X-68.661 Y45.075 E36.71132
G1 X-69.560 Y45.500 E36.77776
G1 X-70.024 Y45.679 E36.81098
G1 X-70.976 Y45.968 E36.87742
G1 X-71.951 Y46.162 E36.94386
G1 X-72.941 Y46.259 E37.01029
G1 X-73.935 Y46.259 E37.07673
G1 X-74.431 Y46.223 E37.10996
G1 X-74.925 Y46.162 E37.14319
G1 X-75.900 Y45.968 E37.20963
G1 X-76.852 Y45.679 E37.27606
G1 X-77.771 Y45.299 E37.34250
G1 X-78.215 Y45.075 E37.37573
G1 X-79.068 Y44.564 E37.44216
G1 X-79.867 Y43.971 E37.50860
G1 X-80.604 Y43.303 E37.57504
G1 X-81.272 Y42.567 E37.64148
G1 X-81.578 Y42.174 E37.67470
G1 X-82.130 Y41.348 E37.74114
G1 X-82.599 Y40.470 E37.80758
G1 X-82.801 Y40.016 E37.84081
G1 X-83.136 Y39.079 E37.90724
G1 X-83.268 Y38.600 E37.94047
G1 X-83.462 Y37.625 E38.00691
G1 X-83.560 Y36.635 E38.07334
G1 X-83.560 Y35.640 E38.13978
G1 X-83.462 Y34.651 E38.20622
G1 X-83.377 Y34.161 E38.23945
G1 X-83.268 Y33.675 E38.27267
G1 X-82.980 Y32.724 E38.33911
G1 X-82.599 Y31.805 E38.40555
G1 X-82.375 Y31.361 E38.43878
G1 X-81.864 Y30.508 E38.50521
G1 X-81.272 Y29.709 E38.57165
G1 X-80.604 Y28.972 E38.63809
G1 X-79.867 Y28.304 E38.70452
G1 X-79.475 Y27.998 E38.73775
G1 X-78.648 Y27.446 E38.80419
G1 X-78.215 Y27.201 E38.83742
G1 X-77.316 Y26.775 E38.90386
G1 X-76.380 Y26.440 E38.97029
G1 X-75.415 Y26.199 E39.03673
G1 X-74.925 Y26.114 E39.06996
G1 X-73.938 Y26.016 E39.13624
G1 X-73.213 Y26.010 E39.18467
G1 X-72.442 Y26.053 E39.23623
G1 X-71.461 Y26.199 E39.30249 F450.000
G1 X-70.976 Y26.308 E39.33572
G1 X-70.024 Y26.596 E39.40215
G1 X-69.105 Y26.977 E39.46859
G1 X-68.228 Y27.446 E39.53503
G1 X-67.401 Y27.998 E39.60146
G1 X-67.009 Y28.304 E39.63469
G1 X-66.272 Y28.972 E39.70113
G1 X-65.605 Y29.709 E39.76757
G1 X-65.299 Y30.101 E39.80079
G1 X-64.764 Y30.899 E39.86498
G1 X-64.933 Y31.297 F4800.000
G1 X-65.480 Y32.685 F4800.000
G1 X-69.986 Y28.180 E40.29247 F300.000
G1 E39.29247 F2400.00000
G1 Z0.500 F4800.000
G1 X-67.754 Y29.650 F4800.000
G1 Z0.300 F4800.000
G1 E40.29247 F2400.00000
G1 X-66.951 Y30.454 E40.36873 F300.000
G1 E39.36873 F2400.00000
G1 Z0.500 F4800.000
G1 X-65.033 Y33.893 F4800.000
G1 Z0.300 F4800.000
G1 E40.36873 F2400.00000
G1 X-71.193 Y27.733 E40.95322 F300.000
G1 X-72.168 Y27.519 E41.02014
G1 X-64.819 Y34.867 E41.71733
G1 X-64.724 Y35.723 E41.77513
G1 X-73.025 Y27.422 E42.56278
G1 X-73.801 Y27.407 E42.61483
G1 X-64.710 Y36.498 E43.47737
G1 X-64.757 Y37.212 E43.52539
G1 X-74.512 Y27.456 E44.45102
G1 X-75.175 Y27.555 E44.49595
G1 X-64.855 Y37.875 E45.47511
G1 X-65.002 Y38.488 E45.51742
G1 X-75.788 Y27.702 E46.54076
G1 X-76.370 Y27.881 E46.58158
G1 X-65.182 Y39.069 E47.64308
G1 X-65.388 Y39.623 E47.68276
G1 X-76.924 Y28.088 E48.77725
G1 X-77.440 Y28.332 E48.81558
G1 X-65.632 Y40.140 E49.93590
G1 X-65.903 Y40.630 E49.97345
G1 X-77.930 Y28.603 E51.11452
G1 X-78.401 Y28.893 E51.15161
G1 X-66.194 Y41.100 E52.30980
G1 X-66.517 Y41.537 E52.34629
G1 X-78.837 Y29.217 E53.51519
G1 X-79.253 Y29.563 E53.55143
G1 X-66.863 Y41.952 E54.72694
G1 X-67.239 Y42.337 E54.76303
G1 X-79.637 Y29.938 E55.93940
G1 X-80.013 Y30.323 E55.97549
G1 X-67.624 Y42.713 E57.15101
G1 X-68.039 Y43.058 E57.18725
G1 X-80.359 Y30.739 E58.35615
G1 X-80.683 Y31.175 E58.39263
G1 X-68.476 Y43.382 E59.55083
G1 X-68.946 Y43.672 E59.58792
G1 X-80.973 Y31.646 E60.72898
G1 X-81.244 Y32.136 E60.76653
G1 X-69.436 Y43.943 E61.88685
G1 X-69.952 Y44.188 E61.92518
G1 X-81.488 Y32.652 E63.01967
G1 X-81.694 Y33.206 E63.05935
G1 X-70.507 Y44.394 E64.12085
G1 X-71.088 Y44.573 E64.16167
G1 X-81.874 Y33.788 E65.18501
G1 X-82.021 Y34.401 E65.22732
G1 X-71.701 Y44.721 E66.20648
G1 X-72.364 Y44.819 E66.25141
G1 X-82.120 Y35.063 E67.17704
G1 X-82.166 Y35.778 E67.22505
G1 X-73.078 Y44.866 E68.08733
G1 X-73.852 Y44.852 E68.13930
G1 X-82.152 Y36.552 E68.92678
G1 X-82.057 Y37.408 E68.98458
G1 X-74.709 Y44.756 E69.68176
G1 X-75.683 Y44.543 E69.74867
G1 X-81.843 Y38.383 E70.33316
G1 X-81.396 Y39.590 F4800.000
G1 X-76.891 Y44.096 E70.76064 F300.000
G1 E69.76064 F2400.00000
G1 Z0.500 F4800.000
G1 X-79.122 Y42.625 F4800.000
G1 Z0.300 F4800.000
G1 E70.76064 F2400.00000
G1 X-79.925 Y41.822 E70.83685 F300.000
G1 E69.83685 F2400.00000
G1 Z0.500 F4800.000
G1 X-66.410 Y-32.060 F4800.000
G1 Z0.300 F4800.000
G1 E70.83685 F2400.00000
G1 X-65.991 Y-31.275 E70.89626 F900.000
G1 X-65.810 Y-30.869 E70.92598
G1 X-65.511 Y-30.031 E70.98539
G1 X-65.392 Y-29.603 E71.01510
G1 X-65.219 Y-28.730 E71.07451
G1 X-65.132 Y-27.845 E71.13393
G1 X-65.132 Y-26.956 E71.19334
G1 X-65.164 Y-26.513 E71.22305
G1 X-65.219 Y-26.071 E71.25277
G1 X-65.392 Y-25.199 E71.31218
G1 X-65.650 Y-24.348 E71.37159
G1 X-65.991 Y-23.526 E71.43100
G1 X-66.410 Y-22.742 E71.49041
G1 X-66.904 Y-22.002 E71.54983
G1 X-67.468 Y-21.315 E71.60924
G1 X-67.775 Y-20.993 E71.63895
G1 X-68.434 Y-20.396 E71.69836
G1 X-69.148 Y-19.866 E71.75778
G1 X-69.911 Y-19.409 E71.81719
G1 X-70.308 Y-19.209 E71.84690
G1 X-71.130 Y-18.868 E71.90631
G1 X-71.981 Y-18.610 E71.96573
G1 X-72.415 Y-18.513 E71.99544
G1 X-73.295 Y-18.382 E72.05485
G1 X-73.738 Y-18.349 E72.08457
G1 X-74.628 Y-18.349 E72.14398
G1 X-75.513 Y-18.437 E72.20339
G1 X-76.385 Y-18.610 E72.26280
G1 X-77.236 Y-18.868 E72.32221
